devtools/panel/img/egg-minus.svg

<?xml version="1.0" encoding="UTF-8"?>
<svg width="233px" height="313px" viewBox="0 0 233 313" version="1.1" xmlns="http://www.w3.org/2000/svg" xmlns:xlink="http://www.w3.org/1999/xlink">
    <!-- Generator: Sketch 47.1 (45422) - http://www.bohemiancoding.com/sketch -->
    <title>egg-minus</title>
    <desc>Created with Sketch.</desc>
    <defs>
        <path d="M193.7,48.5 C154.3,-2.8 116.6,0.5 116.6,0.5 C116.6,0.5 78.8,-2.7 39.5,48.5 C0.2,99.7 -4.2,160.2 4,210 C15.1,277.1 60.6,312.6 116.5,312.6 C172.4,312.6 218,277.1 229,210 C237.3,160.2 233,99.8 193.7,48.5 Z" id="path-1"></path>
        <path d="M61.5,150 L177.5,150 L177.5,150 C187.717268,150 196,158.282732 196,168.5 L196,168.5 L196,168.5 C196,178.717268 187.717268,187 177.5,187 L61.5,187 L61.5,187 C51.2827321,187 43,178.717268 43,168.5 L43,168.5 L43,168.5 C43,158.282732 51.2827321,150 61.5,150 Z" id="path-2"></path>
    </defs>
    <g id="Page-1" stroke="none" stroke-width="1" fill="none" fill-rule="evenodd">
        <g id="egg-minus">
            <g id="Group" fill-rule="nonzero">
                <g id="Shape">
                    <use fill="#FFE0B3" fill-rule="evenodd" xlink:href="#path-1"></use>
                    <path stroke="#FFE0B3" stroke-width="1" d="M193.303085,48.8040696 L193.303458,48.8045564 C176.967735,27.5349472 159.780558,14.0219566 142.679935,6.74175179 C136.477547,4.10122455 130.648796,2.4497443 125.31073,1.59794029 C121.770005,1.03294086 118.954934,0.889345276 116.983203,0.97805522 C116.81161,0.985775334 116.697853,0.993346451 116.557823,0.99821791 C116.506248,0.993851784 116.397955,0.986883097 116.234501,0.979774779 C114.276532,0.894626409 111.46955,1.04044804 107.932778,1.60622269 C102.588977,2.46106646 96.7534209,4.11389682 90.5446971,6.75395654 C73.4116703,14.0392241 56.2122734,27.5484379 39.8966286,48.8044434 C4.91577361,94.3774656 -5.23339646,150.846532 4.49329595,209.918397 C15.1410586,274.284601 58.4055986,312.1 116.5,312.1 C174.6315,312.1 217.960122,274.252545 228.506803,209.917801 C238.350075,150.858169 228.287168,94.470316 193.303085,48.8040696 Z"></path>
                </g>
            </g>
            <g id="Combined-Shape">
                <use fill="#FFFFFF" fill-rule="evenodd" xlink:href="#path-2"></use>
                <path stroke="#F5E0A9" stroke-width="1" d="M61.5,150.5 C51.5588745,150.5 43.5,158.558875 43.5,168.5 C43.5,178.441125 51.5588745,186.5 61.5,186.5 L177.5,186.5 C187.441125,186.5 195.5,178.441125 195.5,168.5 C195.5,158.558875 187.441125,150.5 177.5,150.5 L61.5,150.5 Z"></path>
            </g>
        </g>
    </g>
</svg>

<svg width="233" height="313" viewBox="0 0 233 313" xmlns="http://www.w3.org/2000/svg" xmlns:xlink="http://www.w3.org/1999/xlink"><title>egg-minus</title><defs><path d="M193.7 48.5C154.3-2.8 116.6.5 116.6.5s-37.8-3.2-77.1 48S-4.2 160.2 4 210c11.1 67.1 56.6 102.6 112.5 102.6S218 277.1 229 210c8.3-49.8 4-110.2-35.3-161.5z" id="a"/><path d="M61.5 150h116c10.217 0 18.5 8.283 18.5 18.5s-8.283 18.5-18.5 18.5h-116c-10.217 0-18.5-8.283-18.5-18.5S51.283 150 61.5 150z" id="b"/></defs><g fill="none" fill-rule="evenodd"><g fill-rule="nonzero"><use fill="#FFE0B3" fill-rule="evenodd" xlink:href="#a"/><path stroke="#FFE0B3" d="M193.303 48.804c-16.335-21.27-33.522-34.782-50.623-42.062-6.202-2.64-12.03-4.292-17.37-5.144-3.54-.565-6.355-.71-8.327-.62-.17.008-.285.015-.425.02-.052-.004-.16-.01-.323-.018-1.958-.085-4.765.06-8.302.626-5.344.855-11.18 2.508-17.388 5.148-17.133 7.285-34.333 20.794-50.648 42.05C4.917 94.377-5.233 150.847 4.493 209.918 15.14 274.285 58.406 312.1 116.5 312.1c58.13 0 101.46-37.847 112.007-102.182 9.843-59.06-.22-115.448-35.204-161.114z"/></g><use fill="#FFF" xlink:href="#b"/><path stroke="#F5E0A9" d="M61.5 150.5c-9.94 0-18 8.06-18 18s8.06 18 18 18h116c9.94 0 18-8.06 18-18s-8.06-18-18-18h-116z"/></g></svg>
